X:1
T:Französische Suite Nr I
T:Französische Suite Nr 1
T: D minor, BWV 812
T:J.S. Bach
T:2 Courante
C:J.S. Bach
%%score { ( 1 3 5 7 ) | ( 2 4 6 ) }
L:1/8
Q:1/4=120
M:3/2
K:F
V:1 treble nm="Piano"
V:3 treble 
V:5 treble 
V:7 treble 
V:2 bass 
V:4 bass 
V:6 bass 
V:1
!f!"^Molto  Allegro" A | A3 G FEFD B3 B | A4 x2 A2 d^cde | ^c2 =BA gfga f3 e | e6 [^ce]2 a=cdA | %5
 cBAG B3 c A3 B | c3 B AGAF _e3 f | d6 d2 =edef |!f! B3 c A3 G G3 F | F3 E FGFG MG3 A | %10
 A4- AE A4 z :: A | !arpeggio![^CEA]3 =B ^cdce G3 A | GFED MA3 B/c/ ^F3 F | G3 A Bcd_e f3 g | %15
 _e2 dc [^FAd]3 G P^F3 G | z ^FAc B3 A A3 G | G4- G2 (GA/B/) B3 B | B6 A=B/c/ c3 c | %19
 c2 =B2- BB^cd efeg | (_BGA).g (f^cd).b (agfe) |!f! d^c=BA a3 =c c_BcA | cBAG g3 f ed^cd | %23
 d^c=BA !arpeggio![DF_B]3 =c BABG | z ^ceg f3 e e3 d | d4- dA- !fermata![Ad]4 z :| %26
V:2
 z | z2 F,2 A,4- A,2 G,2 | !^!A,3 G, F,E,F,D, MB,3 B, | E2 D2- D2 ^C2 DCDE | %4
 D^C=B,A, G,^F,G,A, MF,3 G, | G,3 =F, E,D,E,C, F,D,C,B,, | z C,D,E, F,8- | %7
 F,3 _E, D,C,D,B,, B,3 A, | G,D,E,C, F,C,D,=B,, D,^C,=B,,A,, | z E,F,G, A,4 B,4 | E,6- E,4 z :: z | %12
 z E,F,G, (A,4 A,4-) | A,4 F,G,F,A, z A, D,2 | z D,E,^F, G,_E,=F,D, C,=B,,A,,G,, | %15
 C,4- C,A,,_B,,D, _E,C,A,B, | ^F,2 D,2 G,2 C,2 D,2 D,,2 | G,,4 z4 z G,,A,,B,, | %18
 z G,A,B, CDC_E G,^F,=E,D, | G,3 A, G,=F,G,E, _B,3 B, | z2 E,2 z2 F,2 z2 G,2 | %21
 A,3 G, ^F,E,F,D, D4- | D3 =F, E,D,^C,D, .G,,2 .B,,2 | A,,3 B,, A,,G,,A,,F,, G,,2 G,2- | %24
 G,=E,^C,A,, D,2 G,2 A,2 A,,2 | z2 ^F,2 A,2 !fermata!D,4 z :| %26
V:3
 x | x8 z GE^C | D6 D2 D4 | A4 e4 d2 ^G2 | A6 A2 [Ad] x3 | x4 G4- G2 F2- | F4 x4 z c A2 | %7
 z A B4 [FB]2 [Gc]3 A- | A2 G2- G2 F2- F2 E2- | E2 D^C D4- D4- | DDE=B, ^C2- C4 z :: x | z8 E4 | %13
 D4 x4 D4- | D2 x6 d4 | c4 x8 | D6 =E2 ^F4 | z!p! (_EDC x4 F=EFG | E6) x2 A4 | A2 G2- G x7 | x12 | %21
 x12 | x12 | x8 _E2 z2 | A4 d4 ^c4 | GGAE ^F2- F4 z :| %26
V:4
 x | D,12- | D,4 x8 | A,4 x4 D2 x2 | x12 | x12 | A,,6 G,,2 A,,2 F,,2 | B,,4 x8 | x12 | %9
 D,6 =C,2 B,,4 | A,,6- A,,4 z :: x | A,,6 =B,,2 ^C,2 A,,2 | D,3 E, z4 =C,3 C, | B,,4 x8 | x12 | %16
 x12 | x4 B,A,B,G, x4 | C,4 x8 | x12 | ^C,4 D,4 B,,4 | A,,3 x7 ^F,2 | G,3 x9 | x12 | x12 | %25
 D,6 D,,4 z :| %26
V:5
 x | x12 | GE MF4 F2 G4 | x12 | x12 | x12 | x12 | x12 | x12 | x12 | x11 :: x | x12 | x12 | x12 | %15
 x12 | x12 | x12 | x12 | x12 | x12 | x12 | x12 | x12 | x12 | x11 :| %26
V:6
 x | x12 | x12 | x12 | x12 | x12 | x12 | x12 | x12 | x12 | x11 :: x | x8 z E,3 | x12 | x12 | x12 | %16
 x12 | x12 | x12 | x12 | x12 | x12 | x12 | x12 | x12 | x11 :| %26
V:7
 x | x12 | x12 | x12 | x12 | x12 | x12 | x12 | x12 | x12 | x11 :: x | x12 | x12 | x12 | x12 | %16
 x4 G4 x4 | x12 | x12 | x12 | x12 | x12 | x12 | x12 | x6 B2 A2 G2- | x11 :| %26

